;This a generated GCODE, do not edit
;===================================
G21
G90
M3
M106
G92 X0 Y0 Z0
; Line 1 -----------------------------------
; Power 6, Speed 1
G0 X20 Y20
G02 X20 Y20 I2.0 J-2.0 E10 S0.06 F60
; Power 6.1, Speed 1
G0 X30 Y20
G02 X30 Y20 I2.0 J-2.0 E10 S0.061 F60
; Power 6.2, Speed 1
G0 X40 Y20
G02 X40 Y20 I2.0 J-2.0 E10 S0.062 F60
; Power 6.3, Speed 1
G0 X50 Y20
G02 X50 Y20 I2.0 J-2.0 E10 S0.063 F60
; Power 6.4, Speed 1
G0 X60 Y20
G02 X60 Y20 I2.0 J-2.0 E10 S0.064 F60
; Power 6.5, Speed 1
G0 X70 Y20
G02 X70 Y20 I2.0 J-2.0 E10 S0.065 F60
; Power 6.6, Speed 1
G0 X80 Y20
G02 X80 Y20 I2.0 J-2.0 E10 S0.066 F60
; Power 6.7, Speed 1
G0 X90 Y20
G02 X90 Y20 I2.0 J-2.0 E10 S0.067 F60
; Power 6.8, Speed 1
G0 X100 Y20
G02 X100 Y20 I2.0 J-2.0 E10 S0.068 F60
; Power 6.9, Speed 1
G0 X110 Y20
G02 X110 Y20 I2.0 J-2.0 E10 S0.069 F60
; Power 7, Speed 1
G0 X120 Y20
G02 X120 Y20 I2.0 J-2.0 E10 S0.07 F60
; Power 7.5, Speed 1
G0 X130 Y20
G02 X130 Y20 I2.0 J-2.0 E10 S0.075 F60
; Power 8, Speed 1
G0 X140 Y20
G02 X140 Y20 I2.0 J-2.0 E10 S0.08 F60
; Power 8.5, Speed 1
G0 X150 Y20
G02 X150 Y20 I2.0 J-2.0 E10 S0.085 F60
; Power 9, Speed 1
G0 X160 Y20
G02 X160 Y20 I2.0 J-2.0 E10 S0.09 F60
; Power 9.5, Speed 1
G0 X170 Y20
G02 X170 Y20 I2.0 J-2.0 E10 S0.095 F60
; Power 10, Speed 1
G0 X180 Y20
G02 X180 Y20 I2.0 J-2.0 E10 S0.1 F60
; Line 2 -----------------------------------
; Power 6, Speed 2
G0 X20 Y30
G02 X20 Y30 I2.0 J-2.0 E10 S0.06 F120
; Power 6.1, Speed 2
G0 X30 Y30
G02 X30 Y30 I2.0 J-2.0 E10 S0.061 F120
; Power 6.2, Speed 2
G0 X40 Y30
G02 X40 Y30 I2.0 J-2.0 E10 S0.062 F120
; Power 6.3, Speed 2
G0 X50 Y30
G02 X50 Y30 I2.0 J-2.0 E10 S0.063 F120
; Power 6.4, Speed 2
G0 X60 Y30
G02 X60 Y30 I2.0 J-2.0 E10 S0.064 F120
; Power 6.5, Speed 2
G0 X70 Y30
G02 X70 Y30 I2.0 J-2.0 E10 S0.065 F120
; Power 6.6, Speed 2
G0 X80 Y30
G02 X80 Y30 I2.0 J-2.0 E10 S0.066 F120
; Power 6.7, Speed 2
G0 X90 Y30
G02 X90 Y30 I2.0 J-2.0 E10 S0.067 F120
; Power 6.8, Speed 2
G0 X100 Y30
G02 X100 Y30 I2.0 J-2.0 E10 S0.068 F120
; Power 6.9, Speed 2
G0 X110 Y30
G02 X110 Y30 I2.0 J-2.0 E10 S0.069 F120
; Power 7, Speed 2
G0 X120 Y30
G02 X120 Y30 I2.0 J-2.0 E10 S0.07 F120
; Power 7.5, Speed 2
G0 X130 Y30
G02 X130 Y30 I2.0 J-2.0 E10 S0.075 F120
; Power 8, Speed 2
G0 X140 Y30
G02 X140 Y30 I2.0 J-2.0 E10 S0.08 F120
; Power 8.5, Speed 2
G0 X150 Y30
G02 X150 Y30 I2.0 J-2.0 E10 S0.085 F120
; Power 9, Speed 2
G0 X160 Y30
G02 X160 Y30 I2.0 J-2.0 E10 S0.09 F120
; Power 9.5, Speed 2
G0 X170 Y30
G02 X170 Y30 I2.0 J-2.0 E10 S0.095 F120
; Power 10, Speed 2
G0 X180 Y30
G02 X180 Y30 I2.0 J-2.0 E10 S0.1 F120
; Line 5 -----------------------------------
; Power 6, Speed 5
G0 X20 Y40
G02 X20 Y40 I2.0 J-2.0 E10 S0.06 F300
; Power 6.1, Speed 5
G0 X30 Y40
G02 X30 Y40 I2.0 J-2.0 E10 S0.061 F300
; Power 6.2, Speed 5
G0 X40 Y40
G02 X40 Y40 I2.0 J-2.0 E10 S0.062 F300
; Power 6.3, Speed 5
G0 X50 Y40
G02 X50 Y40 I2.0 J-2.0 E10 S0.063 F300
; Power 6.4, Speed 5
G0 X60 Y40
G02 X60 Y40 I2.0 J-2.0 E10 S0.064 F300
; Power 6.5, Speed 5
G0 X70 Y40
G02 X70 Y40 I2.0 J-2.0 E10 S0.065 F300
; Power 6.6, Speed 5
G0 X80 Y40
G02 X80 Y40 I2.0 J-2.0 E10 S0.066 F300
; Power 6.7, Speed 5
G0 X90 Y40
G02 X90 Y40 I2.0 J-2.0 E10 S0.067 F300
; Power 6.8, Speed 5
G0 X100 Y40
G02 X100 Y40 I2.0 J-2.0 E10 S0.068 F300
; Power 6.9, Speed 5
G0 X110 Y40
G02 X110 Y40 I2.0 J-2.0 E10 S0.069 F300
; Power 7, Speed 5
G0 X120 Y40
G02 X120 Y40 I2.0 J-2.0 E10 S0.07 F300
; Power 7.5, Speed 5
G0 X130 Y40
G02 X130 Y40 I2.0 J-2.0 E10 S0.075 F300
; Power 8, Speed 5
G0 X140 Y40
G02 X140 Y40 I2.0 J-2.0 E10 S0.08 F300
; Power 8.5, Speed 5
G0 X150 Y40
G02 X150 Y40 I2.0 J-2.0 E10 S0.085 F300
; Power 9, Speed 5
G0 X160 Y40
G02 X160 Y40 I2.0 J-2.0 E10 S0.09 F300
; Power 9.5, Speed 5
G0 X170 Y40
G02 X170 Y40 I2.0 J-2.0 E10 S0.095 F300
; Power 10, Speed 5
G0 X180 Y40
G02 X180 Y40 I2.0 J-2.0 E10 S0.1 F300
; Line 7 -----------------------------------
; Power 6, Speed 7
G0 X20 Y50
G02 X20 Y50 I2.0 J-2.0 E10 S0.06 F420
; Power 6.1, Speed 7
G0 X30 Y50
G02 X30 Y50 I2.0 J-2.0 E10 S0.061 F420
; Power 6.2, Speed 7
G0 X40 Y50
G02 X40 Y50 I2.0 J-2.0 E10 S0.062 F420
; Power 6.3, Speed 7
G0 X50 Y50
G02 X50 Y50 I2.0 J-2.0 E10 S0.063 F420
; Power 6.4, Speed 7
G0 X60 Y50
G02 X60 Y50 I2.0 J-2.0 E10 S0.064 F420
; Power 6.5, Speed 7
G0 X70 Y50
G02 X70 Y50 I2.0 J-2.0 E10 S0.065 F420
; Power 6.6, Speed 7
G0 X80 Y50
G02 X80 Y50 I2.0 J-2.0 E10 S0.066 F420
; Power 6.7, Speed 7
G0 X90 Y50
G02 X90 Y50 I2.0 J-2.0 E10 S0.067 F420
; Power 6.8, Speed 7
G0 X100 Y50
G02 X100 Y50 I2.0 J-2.0 E10 S0.068 F420
; Power 6.9, Speed 7
G0 X110 Y50
G02 X110 Y50 I2.0 J-2.0 E10 S0.069 F420
; Power 7, Speed 7
G0 X120 Y50
G02 X120 Y50 I2.0 J-2.0 E10 S0.07 F420
; Power 7.5, Speed 7
G0 X130 Y50
G02 X130 Y50 I2.0 J-2.0 E10 S0.075 F420
; Power 8, Speed 7
G0 X140 Y50
G02 X140 Y50 I2.0 J-2.0 E10 S0.08 F420
; Power 8.5, Speed 7
G0 X150 Y50
G02 X150 Y50 I2.0 J-2.0 E10 S0.085 F420
; Power 9, Speed 7
G0 X160 Y50
G02 X160 Y50 I2.0 J-2.0 E10 S0.09 F420
; Power 9.5, Speed 7
G0 X170 Y50
G02 X170 Y50 I2.0 J-2.0 E10 S0.095 F420
; Power 10, Speed 7
G0 X180 Y50
G02 X180 Y50 I2.0 J-2.0 E10 S0.1 F420
; Line 10 -----------------------------------
; Power 6, Speed 10
G0 X20 Y60
G02 X20 Y60 I2.0 J-2.0 E10 S0.06 F600
; Power 6.1, Speed 10
G0 X30 Y60
G02 X30 Y60 I2.0 J-2.0 E10 S0.061 F600
; Power 6.2, Speed 10
G0 X40 Y60
G02 X40 Y60 I2.0 J-2.0 E10 S0.062 F600
; Power 6.3, Speed 10
G0 X50 Y60
G02 X50 Y60 I2.0 J-2.0 E10 S0.063 F600
; Power 6.4, Speed 10
G0 X60 Y60
G02 X60 Y60 I2.0 J-2.0 E10 S0.064 F600
; Power 6.5, Speed 10
G0 X70 Y60
G02 X70 Y60 I2.0 J-2.0 E10 S0.065 F600
; Power 6.6, Speed 10
G0 X80 Y60
G02 X80 Y60 I2.0 J-2.0 E10 S0.066 F600
; Power 6.7, Speed 10
G0 X90 Y60
G02 X90 Y60 I2.0 J-2.0 E10 S0.067 F600
; Power 6.8, Speed 10
G0 X100 Y60
G02 X100 Y60 I2.0 J-2.0 E10 S0.068 F600
; Power 6.9, Speed 10
G0 X110 Y60
G02 X110 Y60 I2.0 J-2.0 E10 S0.069 F600
; Power 7, Speed 10
G0 X120 Y60
G02 X120 Y60 I2.0 J-2.0 E10 S0.07 F600
; Power 7.5, Speed 10
G0 X130 Y60
G02 X130 Y60 I2.0 J-2.0 E10 S0.075 F600
; Power 8, Speed 10
G0 X140 Y60
G02 X140 Y60 I2.0 J-2.0 E10 S0.08 F600
; Power 8.5, Speed 10
G0 X150 Y60
G02 X150 Y60 I2.0 J-2.0 E10 S0.085 F600
; Power 9, Speed 10
G0 X160 Y60
G02 X160 Y60 I2.0 J-2.0 E10 S0.09 F600
; Power 9.5, Speed 10
G0 X170 Y60
G02 X170 Y60 I2.0 J-2.0 E10 S0.095 F600
; Power 10, Speed 10
G0 X180 Y60
G02 X180 Y60 I2.0 J-2.0 E10 S0.1 F600
; Line 11 -----------------------------------
; Power 6, Speed 11
G0 X20 Y70
G02 X20 Y70 I2.0 J-2.0 E10 S0.06 F660
; Power 6.1, Speed 11
G0 X30 Y70
G02 X30 Y70 I2.0 J-2.0 E10 S0.061 F660
; Power 6.2, Speed 11
G0 X40 Y70
G02 X40 Y70 I2.0 J-2.0 E10 S0.062 F660
; Power 6.3, Speed 11
G0 X50 Y70
G02 X50 Y70 I2.0 J-2.0 E10 S0.063 F660
; Power 6.4, Speed 11
G0 X60 Y70
G02 X60 Y70 I2.0 J-2.0 E10 S0.064 F660
; Power 6.5, Speed 11
G0 X70 Y70
G02 X70 Y70 I2.0 J-2.0 E10 S0.065 F660
; Power 6.6, Speed 11
G0 X80 Y70
G02 X80 Y70 I2.0 J-2.0 E10 S0.066 F660
; Power 6.7, Speed 11
G0 X90 Y70
G02 X90 Y70 I2.0 J-2.0 E10 S0.067 F660
; Power 6.8, Speed 11
G0 X100 Y70
G02 X100 Y70 I2.0 J-2.0 E10 S0.068 F660
; Power 6.9, Speed 11
G0 X110 Y70
G02 X110 Y70 I2.0 J-2.0 E10 S0.069 F660
; Power 7, Speed 11
G0 X120 Y70
G02 X120 Y70 I2.0 J-2.0 E10 S0.07 F660
; Power 7.5, Speed 11
G0 X130 Y70
G02 X130 Y70 I2.0 J-2.0 E10 S0.075 F660
; Power 8, Speed 11
G0 X140 Y70
G02 X140 Y70 I2.0 J-2.0 E10 S0.08 F660
; Power 8.5, Speed 11
G0 X150 Y70
G02 X150 Y70 I2.0 J-2.0 E10 S0.085 F660
; Power 9, Speed 11
G0 X160 Y70
G02 X160 Y70 I2.0 J-2.0 E10 S0.09 F660
; Power 9.5, Speed 11
G0 X170 Y70
G02 X170 Y70 I2.0 J-2.0 E10 S0.095 F660
; Power 10, Speed 11
G0 X180 Y70
G02 X180 Y70 I2.0 J-2.0 E10 S0.1 F660
; Line 12 -----------------------------------
; Power 6, Speed 12
G0 X20 Y80
G02 X20 Y80 I2.0 J-2.0 E10 S0.06 F720
; Power 6.1, Speed 12
G0 X30 Y80
G02 X30 Y80 I2.0 J-2.0 E10 S0.061 F720
; Power 6.2, Speed 12
G0 X40 Y80
G02 X40 Y80 I2.0 J-2.0 E10 S0.062 F720
; Power 6.3, Speed 12
G0 X50 Y80
G02 X50 Y80 I2.0 J-2.0 E10 S0.063 F720
; Power 6.4, Speed 12
G0 X60 Y80
G02 X60 Y80 I2.0 J-2.0 E10 S0.064 F720
; Power 6.5, Speed 12
G0 X70 Y80
G02 X70 Y80 I2.0 J-2.0 E10 S0.065 F720
; Power 6.6, Speed 12
G0 X80 Y80
G02 X80 Y80 I2.0 J-2.0 E10 S0.066 F720
; Power 6.7, Speed 12
G0 X90 Y80
G02 X90 Y80 I2.0 J-2.0 E10 S0.067 F720
; Power 6.8, Speed 12
G0 X100 Y80
G02 X100 Y80 I2.0 J-2.0 E10 S0.068 F720
; Power 6.9, Speed 12
G0 X110 Y80
G02 X110 Y80 I2.0 J-2.0 E10 S0.069 F720
; Power 7, Speed 12
G0 X120 Y80
G02 X120 Y80 I2.0 J-2.0 E10 S0.07 F720
; Power 7.5, Speed 12
G0 X130 Y80
G02 X130 Y80 I2.0 J-2.0 E10 S0.075 F720
; Power 8, Speed 12
G0 X140 Y80
G02 X140 Y80 I2.0 J-2.0 E10 S0.08 F720
; Power 8.5, Speed 12
G0 X150 Y80
G02 X150 Y80 I2.0 J-2.0 E10 S0.085 F720
; Power 9, Speed 12
G0 X160 Y80
G02 X160 Y80 I2.0 J-2.0 E10 S0.09 F720
; Power 9.5, Speed 12
G0 X170 Y80
G02 X170 Y80 I2.0 J-2.0 E10 S0.095 F720
; Power 10, Speed 12
G0 X180 Y80
G02 X180 Y80 I2.0 J-2.0 E10 S0.1 F720
; Line 13 -----------------------------------
; Power 6, Speed 13
G0 X20 Y90
G02 X20 Y90 I2.0 J-2.0 E10 S0.06 F780
; Power 6.1, Speed 13
G0 X30 Y90
G02 X30 Y90 I2.0 J-2.0 E10 S0.061 F780
; Power 6.2, Speed 13
G0 X40 Y90
G02 X40 Y90 I2.0 J-2.0 E10 S0.062 F780
; Power 6.3, Speed 13
G0 X50 Y90
G02 X50 Y90 I2.0 J-2.0 E10 S0.063 F780
; Power 6.4, Speed 13
G0 X60 Y90
G02 X60 Y90 I2.0 J-2.0 E10 S0.064 F780
; Power 6.5, Speed 13
G0 X70 Y90
G02 X70 Y90 I2.0 J-2.0 E10 S0.065 F780
; Power 6.6, Speed 13
G0 X80 Y90
G02 X80 Y90 I2.0 J-2.0 E10 S0.066 F780
; Power 6.7, Speed 13
G0 X90 Y90
G02 X90 Y90 I2.0 J-2.0 E10 S0.067 F780
; Power 6.8, Speed 13
G0 X100 Y90
G02 X100 Y90 I2.0 J-2.0 E10 S0.068 F780
; Power 6.9, Speed 13
G0 X110 Y90
G02 X110 Y90 I2.0 J-2.0 E10 S0.069 F780
; Power 7, Speed 13
G0 X120 Y90
G02 X120 Y90 I2.0 J-2.0 E10 S0.07 F780
; Power 7.5, Speed 13
G0 X130 Y90
G02 X130 Y90 I2.0 J-2.0 E10 S0.075 F780
; Power 8, Speed 13
G0 X140 Y90
G02 X140 Y90 I2.0 J-2.0 E10 S0.08 F780
; Power 8.5, Speed 13
G0 X150 Y90
G02 X150 Y90 I2.0 J-2.0 E10 S0.085 F780
; Power 9, Speed 13
G0 X160 Y90
G02 X160 Y90 I2.0 J-2.0 E10 S0.09 F780
; Power 9.5, Speed 13
G0 X170 Y90
G02 X170 Y90 I2.0 J-2.0 E10 S0.095 F780
; Power 10, Speed 13
G0 X180 Y90
G02 X180 Y90 I2.0 J-2.0 E10 S0.1 F780
; Line 14 -----------------------------------
; Power 6, Speed 14
G0 X20 Y100
G02 X20 Y100 I2.0 J-2.0 E10 S0.06 F840
; Power 6.1, Speed 14
G0 X30 Y100
G02 X30 Y100 I2.0 J-2.0 E10 S0.061 F840
; Power 6.2, Speed 14
G0 X40 Y100
G02 X40 Y100 I2.0 J-2.0 E10 S0.062 F840
; Power 6.3, Speed 14
G0 X50 Y100
G02 X50 Y100 I2.0 J-2.0 E10 S0.063 F840
; Power 6.4, Speed 14
G0 X60 Y100
G02 X60 Y100 I2.0 J-2.0 E10 S0.064 F840
; Power 6.5, Speed 14
G0 X70 Y100
G02 X70 Y100 I2.0 J-2.0 E10 S0.065 F840
; Power 6.6, Speed 14
G0 X80 Y100
G02 X80 Y100 I2.0 J-2.0 E10 S0.066 F840
; Power 6.7, Speed 14
G0 X90 Y100
G02 X90 Y100 I2.0 J-2.0 E10 S0.067 F840
; Power 6.8, Speed 14
G0 X100 Y100
G02 X100 Y100 I2.0 J-2.0 E10 S0.068 F840
; Power 6.9, Speed 14
G0 X110 Y100
G02 X110 Y100 I2.0 J-2.0 E10 S0.069 F840
; Power 7, Speed 14
G0 X120 Y100
G02 X120 Y100 I2.0 J-2.0 E10 S0.07 F840
; Power 7.5, Speed 14
G0 X130 Y100
G02 X130 Y100 I2.0 J-2.0 E10 S0.075 F840
; Power 8, Speed 14
G0 X140 Y100
G02 X140 Y100 I2.0 J-2.0 E10 S0.08 F840
; Power 8.5, Speed 14
G0 X150 Y100
G02 X150 Y100 I2.0 J-2.0 E10 S0.085 F840
; Power 9, Speed 14
G0 X160 Y100
G02 X160 Y100 I2.0 J-2.0 E10 S0.09 F840
; Power 9.5, Speed 14
G0 X170 Y100
G02 X170 Y100 I2.0 J-2.0 E10 S0.095 F840
; Power 10, Speed 14
G0 X180 Y100
G02 X180 Y100 I2.0 J-2.0 E10 S0.1 F840
; Line 15 -----------------------------------
; Power 6, Speed 15
G0 X20 Y110
G02 X20 Y110 I2.0 J-2.0 E10 S0.06 F900
; Power 6.1, Speed 15
G0 X30 Y110
G02 X30 Y110 I2.0 J-2.0 E10 S0.061 F900
; Power 6.2, Speed 15
G0 X40 Y110
G02 X40 Y110 I2.0 J-2.0 E10 S0.062 F900
; Power 6.3, Speed 15
G0 X50 Y110
G02 X50 Y110 I2.0 J-2.0 E10 S0.063 F900
; Power 6.4, Speed 15
G0 X60 Y110
G02 X60 Y110 I2.0 J-2.0 E10 S0.064 F900
; Power 6.5, Speed 15
G0 X70 Y110
G02 X70 Y110 I2.0 J-2.0 E10 S0.065 F900
; Power 6.6, Speed 15
G0 X80 Y110
G02 X80 Y110 I2.0 J-2.0 E10 S0.066 F900
; Power 6.7, Speed 15
G0 X90 Y110
G02 X90 Y110 I2.0 J-2.0 E10 S0.067 F900
; Power 6.8, Speed 15
G0 X100 Y110
G02 X100 Y110 I2.0 J-2.0 E10 S0.068 F900
; Power 6.9, Speed 15
G0 X110 Y110
G02 X110 Y110 I2.0 J-2.0 E10 S0.069 F900
; Power 7, Speed 15
G0 X120 Y110
G02 X120 Y110 I2.0 J-2.0 E10 S0.07 F900
; Power 7.5, Speed 15
G0 X130 Y110
G02 X130 Y110 I2.0 J-2.0 E10 S0.075 F900
; Power 8, Speed 15
G0 X140 Y110
G02 X140 Y110 I2.0 J-2.0 E10 S0.08 F900
; Power 8.5, Speed 15
G0 X150 Y110
G02 X150 Y110 I2.0 J-2.0 E10 S0.085 F900
; Power 9, Speed 15
G0 X160 Y110
G02 X160 Y110 I2.0 J-2.0 E10 S0.09 F900
; Power 9.5, Speed 15
G0 X170 Y110
G02 X170 Y110 I2.0 J-2.0 E10 S0.095 F900
; Power 10, Speed 15
G0 X180 Y110
G02 X180 Y110 I2.0 J-2.0 E10 S0.1 F900
; Line 20 -----------------------------------
; Power 6, Speed 20
G0 X20 Y120
G02 X20 Y120 I2.0 J-2.0 E10 S0.06 F1200
; Power 6.1, Speed 20
G0 X30 Y120
G02 X30 Y120 I2.0 J-2.0 E10 S0.061 F1200
; Power 6.2, Speed 20
G0 X40 Y120
G02 X40 Y120 I2.0 J-2.0 E10 S0.062 F1200
; Power 6.3, Speed 20
G0 X50 Y120
G02 X50 Y120 I2.0 J-2.0 E10 S0.063 F1200
; Power 6.4, Speed 20
G0 X60 Y120
G02 X60 Y120 I2.0 J-2.0 E10 S0.064 F1200
; Power 6.5, Speed 20
G0 X70 Y120
G02 X70 Y120 I2.0 J-2.0 E10 S0.065 F1200
; Power 6.6, Speed 20
G0 X80 Y120
G02 X80 Y120 I2.0 J-2.0 E10 S0.066 F1200
; Power 6.7, Speed 20
G0 X90 Y120
G02 X90 Y120 I2.0 J-2.0 E10 S0.067 F1200
; Power 6.8, Speed 20
G0 X100 Y120
G02 X100 Y120 I2.0 J-2.0 E10 S0.068 F1200
; Power 6.9, Speed 20
G0 X110 Y120
G02 X110 Y120 I2.0 J-2.0 E10 S0.069 F1200
; Power 7, Speed 20
G0 X120 Y120
G02 X120 Y120 I2.0 J-2.0 E10 S0.07 F1200
; Power 7.5, Speed 20
G0 X130 Y120
G02 X130 Y120 I2.0 J-2.0 E10 S0.075 F1200
; Power 8, Speed 20
G0 X140 Y120
G02 X140 Y120 I2.0 J-2.0 E10 S0.08 F1200
; Power 8.5, Speed 20
G0 X150 Y120
G02 X150 Y120 I2.0 J-2.0 E10 S0.085 F1200
; Power 9, Speed 20
G0 X160 Y120
G02 X160 Y120 I2.0 J-2.0 E10 S0.09 F1200
; Power 9.5, Speed 20
G0 X170 Y120
G02 X170 Y120 I2.0 J-2.0 E10 S0.095 F1200
; Power 10, Speed 20
G0 X180 Y120
G02 X180 Y120 I2.0 J-2.0 E10 S0.1 F1200
G0 X1 Y120
G92 X0 Y0
; Speed -------------
G0 X2.4384 Y4.32 F10000
G1 X2.0828 Y4.6756 S0.07 F1200
G1 X1.5748 Y4.828
G1 X0.9144 Y4.828
G1 X0.4064 Y4.6756
G1 X0.0508 Y4.32
G1 X0.0508 Y4.0152
G1 X0.2032 Y3.6596
G1 X0.4064 Y3.5072
G1 X0.7112 Y3.304
G1 X1.7272 Y2.9992
G1 X2.0828 Y2.796
G1 X2.2352 Y2.6436
G1 X2.4384 Y2.288
G1 X2.4384 Y1.78
G1 X2.0828 Y1.4752
G1 X1.5748 Y1.272
G1 X0.9144 Y1.272
G1 X0.4064 Y1.4752
G1 X0.0508 Y1.78
G0 X3.6068 Y1.78 F10000
G1 X3.9624 Y1.4752 F1200
G1 X4.2672 Y1.272
G1 X4.7752 Y1.272
G1 X5.1308 Y1.4752
G1 X5.4864 Y1.78
G1 X5.6388 Y2.288
G1 X5.6388 Y2.6436
G1 X5.4864 Y3.1516
G1 X5.1308 Y3.5072
G1 X4.7752 Y3.6596
G1 X4.2672 Y3.6596
G1 X3.9624 Y3.5072
G1 X3.6068 Y3.1516
G0 X3.6068 Y3.6596 F10000
G1 X3.6068 Y0.1036 F1200
G0 X6.6548 Y2.6436 F10000
G1 X8.6868 Y2.6436 F1200
G1 X8.6868 Y2.9992
G1 X8.5344 Y3.304
G1 X8.3312 Y3.5072
G1 X8.0264 Y3.6596
G1 X7.5184 Y3.6596
G1 X7.1628 Y3.5072
G1 X6.8072 Y3.1516
G1 X6.6548 Y2.6436
G1 X6.6548 Y2.288
G1 X6.8072 Y1.78
G1 X7.1628 Y1.4752
G1 X7.5184 Y1.272
G1 X8.0264 Y1.272
G1 X8.3312 Y1.4752
G1 X8.6868 Y1.78
G0 X9.7028 Y2.6436 F10000
G1 X11.7348 Y2.6436 F1200
G1 X11.7348 Y2.9992
G1 X11.5824 Y3.304
G1 X11.3792 Y3.5072
G1 X11.0744 Y3.6596
G1 X10.5664 Y3.6596
G1 X10.2108 Y3.5072
G1 X9.8552 Y3.1516
G1 X9.7028 Y2.6436
G1 X9.7028 Y2.288
G1 X9.8552 Y1.78
G1 X10.2108 Y1.4752
G1 X10.5664 Y1.272
G1 X11.0744 Y1.272
G1 X11.3792 Y1.4752
G1 X11.7348 Y1.78
G0 X14.7828 Y1.78 F10000
G1 X14.4272 Y1.4752 F1200
G1 X14.1224 Y1.272
G1 X13.6144 Y1.272
G1 X13.2588 Y1.4752
G1 X12.9032 Y1.78
G1 X12.7508 Y2.288
G1 X12.7508 Y2.6436
G1 X12.9032 Y3.1516
G1 X13.2588 Y3.5072
G1 X13.6144 Y3.6596
G1 X14.1224 Y3.6596
G1 X14.4272 Y3.5072
G1 X14.7828 Y3.1516
G0 X14.7828 Y4.828 F10000
G1 X14.7828 Y1.272 F1200
G0 X0 Y0
G0 X0 Y0
G92 X1 Y120
G0 X170 Y1 E10 S0.7 F12000
G92 X0 Y0
; Power -------------
G0 X0.0508 Y3.558 F10000
G1 X0.0508 Y0.1036 S0.07 F1200
G0 X0.0508 Y1.78 F10000
G1 X1.524 Y1.78 F1200
G1 X2.032 Y1.9324
G1 X2.1844 Y2.0848
G1 X2.3876 Y2.4404
G1 X2.3876 Y2.8976
G1 X2.1844 Y3.2532
G1 X2.032 Y3.4056
G1 X1.524 Y3.558
G1 X0.0508 Y3.558
G0 X4.2164 Y2.4404 F10000
G1 X3.8608 Y2.2372 F1200
G1 X3.556 Y1.9324
G1 X3.3528 Y1.4244
G1 X3.3528 Y1.1196
G1 X3.556 Y0.6116
G1 X3.8608 Y0.256
G1 X4.2164 Y0.1036
G1 X4.6736 Y0.1036
G1 X5.0292 Y0.256
G1 X5.334 Y0.6116
G1 X5.5372 Y1.1196
G1 X5.5372 Y1.4244
G1 X5.334 Y1.9324
G1 X5.0292 Y2.2372
G1 X4.6736 Y2.4404
G1 X4.2164 Y2.4404
G0 X6.5024 Y2.4404 F10000
G1 X7.1628 Y0.1036 F1200
G0 X7.1628 Y0.1036 F10000
G1 X7.8232 Y2.4404 F1200
G0 X7.8232 Y2.4404 F10000
G1 X8.4836 Y0.1036 F1200
G0 X8.4836 Y0.1036 F10000
G1 X9.144 Y2.4404 F1200
G0 X10.16 Y1.4244 F10000
G1 X12.1412 Y1.4244 F1200
G1 X12.1412 Y1.78
G1 X11.9888 Y2.0848
G1 X11.7856 Y2.2372
G1 X11.4808 Y2.4404
G1 X10.9728 Y2.4404
G1 X10.668 Y2.2372
G1 X10.3124 Y1.9324
G1 X10.16 Y1.4244
G1 X10.16 Y1.1196
G1 X10.3124 Y0.6116
G1 X10.668 Y0.256
G1 X10.9728 Y0.1036
G1 X11.4808 Y0.1036
G1 X11.7856 Y0.256
G1 X12.1412 Y0.6116
G0 X13.3096 Y0.1036 F10000
G1 X13.3096 Y2.4404 F1200
G0 X13.3096 Y1.4244 F10000
G1 X13.462 Y1.9324 F1200
G1 X13.8176 Y2.2372
G1 X14.1224 Y2.4404
G1 X14.6304 Y2.4404
G0 X0 Y0
G92 X170 Y1
; ORDONNEES ================================================
G0 X0 Y0
G0 X5 Y17
G92 X0 Y0
; Speed 1 -------------------------------------

G0 X0 Y2.4912 F10000
G1 X0.254 Y2.5928 S0.07 F1200
G1 X0.7112 Y3.05
G1 X0.7112 Y0.002
G0 X0 Y0
G0 X0 Y0
G92 X5 Y17
G0 X7 Y17
G92 X0 Y0
G92 X7 Y17
G0 X5 Y27
G92 X0 Y0
; Speed 2 -------------------------------------

G0 X0.1016 Y2.3388 F10000
G1 X0.1016 Y2.4912 S0.07 F1200
G1 X0.254 Y2.7452
G1 X0.4064 Y2.8976
G1 X0.7112 Y3.05
G1 X1.27 Y3.05
G1 X1.5748 Y2.8976
G1 X1.7272 Y2.7452
G1 X1.8288 Y2.4912
G1 X1.8288 Y2.1864
G1 X1.7272 Y1.8816
G1 X1.4224 Y1.4752
G1 X0 Y0.002
G1 X1.9812 Y0.002
G0 X0 Y0
G0 X0 Y0
G92 X5 Y27
G0 X7 Y27
G92 X0 Y0
G92 X7 Y27
G0 X5 Y37
G92 X0 Y0
; Speed 5 -------------------------------------

G0 X1.7272 Y3.05 F10000
G1 X0.254 Y3.05 S0.07 F1200
G1 X0.1016 Y1.7292
G1 X0.254 Y1.8816
G1 X0.7112 Y2.034
G1 X1.1176 Y2.034
G1 X1.5748 Y1.8816
G1 X1.8288 Y1.6276
G1 X1.9812 Y1.1704
G1 X1.9812 Y0.8656
G1 X1.8288 Y0.4592
G1 X1.5748 Y0.1544
G1 X1.1176 Y0.002
G1 X0.7112 Y0.002
G1 X0.254 Y0.1544
G1 X0.1016 Y0.3068
G1 X0 Y0.6116
G0 X0 Y0
G0 X0 Y0
G92 X5 Y37
G0 X7 Y37
G92 X0 Y0
G92 X7 Y37
G0 X5 Y47
G92 X0 Y0
; Speed 7 -------------------------------------

G0 X1.9812 Y3.05 F10000
G1 X0.5588 Y0.002 S0.07 F1200
G0 X0 Y3.05 F10000
G1 X1.9812 Y3.05 F1200
G0 X0 Y0
G0 X0 Y0
G92 X5 Y47
G0 X7 Y47
G92 X0 Y0
G92 X7 Y47
G0 X5 Y57
G92 X0 Y0
; Speed 10 -------------------------------------

G0 X0 Y2.4912 F10000
G1 X0.254 Y2.5928 S0.07 F1200
G1 X0.7112 Y3.05
G1 X0.7112 Y0.002
G0 X0 Y0
G0 X0 Y0
G92 X5 Y57
G0 X7 Y57
G92 X0 Y0

G0 X0.8636 Y3.05 F10000
G1 X0.4064 Y2.8976 S0.07 F1200
G1 X0.1016 Y2.4912
G1 X0 Y1.7292
G1 X0 Y1.3228
G1 X0.1016 Y0.6116
G1 X0.4064 Y0.1544
G1 X0.8636 Y0.002
G1 X1.1176 Y0.002
G1 X1.5748 Y0.1544
G1 X1.8288 Y0.6116
G1 X1.9812 Y1.3228
G1 X1.9812 Y1.7292
G1 X1.8288 Y2.4912
G1 X1.5748 Y2.8976
G1 X1.1176 Y3.05
G1 X0.8636 Y3.05
G0 X0 Y0
G0 X0 Y0
G92 X5 Y57
G0 X7 Y57
G92 X0 Y0
G92 X9 Y57
G0 X5 Y67
G92 X0 Y0
; Speed 11 -------------------------------------

G0 X0 Y2.4912 F10000
G1 X0.254 Y2.5928 S0.07 F1200
G1 X0.7112 Y3.05
G1 X0.7112 Y0.002
G0 X0 Y0
G0 X0 Y0
G92 X5 Y67
G0 X7 Y67
G92 X0 Y0

G0 X0 Y2.4912 F10000
G1 X0.254 Y2.5928 S0.07 F1200
G1 X0.7112 Y3.05
G1 X0.7112 Y0.002
G0 X0 Y0
G0 X0 Y0
G92 X5 Y67
G0 X7 Y67
G92 X0 Y0
G92 X9 Y67
G0 X5 Y77
G92 X0 Y0
; Speed 12 -------------------------------------

G0 X0 Y2.4912 F10000
G1 X0.254 Y2.5928 S0.07 F1200
G1 X0.7112 Y3.05
G1 X0.7112 Y0.002
G0 X0 Y0
G0 X0 Y0
G92 X5 Y77
G0 X7 Y77
G92 X0 Y0

G0 X0.1016 Y2.3388 F10000
G1 X0.1016 Y2.4912 S0.07 F1200
G1 X0.254 Y2.7452
G1 X0.4064 Y2.8976
G1 X0.7112 Y3.05
G1 X1.27 Y3.05
G1 X1.5748 Y2.8976
G1 X1.7272 Y2.7452
G1 X1.8288 Y2.4912
G1 X1.8288 Y2.1864
G1 X1.7272 Y1.8816
G1 X1.4224 Y1.4752
G1 X0 Y0.002
G1 X1.9812 Y0.002
G0 X0 Y0
G0 X0 Y0
G92 X5 Y77
G0 X7 Y77
G92 X0 Y0
G92 X9 Y77
G0 X5 Y87
G92 X0 Y0
; Speed 13 -------------------------------------

G0 X0 Y2.4912 F10000
G1 X0.254 Y2.5928 S0.07 F1200
G1 X0.7112 Y3.05
G1 X0.7112 Y0.002
G0 X0 Y0
G0 X0 Y0
G92 X5 Y87
G0 X7 Y87
G92 X0 Y0

G0 X0.254 Y3.05 F10000
G1 X1.8288 Y3.05 S0.07 F1200
G1 X0.9652 Y1.8816
G1 X1.4224 Y1.8816
G1 X1.7272 Y1.7292
G1 X1.8288 Y1.6276
G1 X1.9812 Y1.1704
G1 X1.9812 Y0.8656
G1 X1.8288 Y0.4592
G1 X1.5748 Y0.1544
G1 X1.1176 Y0.002
G1 X0.7112 Y0.002
G1 X0.254 Y0.1544
G1 X0.1016 Y0.3068
G1 X0 Y0.6116
G0 X0 Y0
G0 X0 Y0
G92 X5 Y87
G0 X7 Y87
G92 X0 Y0
G92 X9 Y87
G0 X5 Y97
G92 X0 Y0
; Speed 14 -------------------------------------

G0 X0 Y2.4912 F10000
G1 X0.254 Y2.5928 S0.07 F1200
G1 X0.7112 Y3.05
G1 X0.7112 Y0.002
G0 X0 Y0
G0 X0 Y0
G92 X5 Y97
G0 X7 Y97
G92 X0 Y0

G0 X1.4224 Y3.05 F10000
G1 X0 Y1.018 S0.07 F1200
G1 X2.1336 Y1.018
G0 X1.4224 Y0.002 F10000
G1 X1.4224 Y3.05 F1200
G0 X0 Y0
G0 X0 Y0
G92 X5 Y97
G0 X7 Y97
G92 X0 Y0
G92 X9 Y97
G0 X5 Y107
G92 X0 Y0
; Speed 15 -------------------------------------

G0 X0 Y2.4912 F10000
G1 X0.254 Y2.5928 S0.07 F1200
G1 X0.7112 Y3.05
G1 X0.7112 Y0.002
G0 X0 Y0
G0 X0 Y0
G92 X5 Y107
G0 X7 Y107
G92 X0 Y0

G0 X1.7272 Y3.05 F10000
G1 X0.254 Y3.05 S0.07 F1200
G1 X0.1016 Y1.7292
G1 X0.254 Y1.8816
G1 X0.7112 Y2.034
G1 X1.1176 Y2.034
G1 X1.5748 Y1.8816
G1 X1.8288 Y1.6276
G1 X1.9812 Y1.1704
G1 X1.9812 Y0.8656
G1 X1.8288 Y0.4592
G1 X1.5748 Y0.1544
G1 X1.1176 Y0.002
G1 X0.7112 Y0.002
G1 X0.254 Y0.1544
G1 X0.1016 Y0.3068
G1 X0 Y0.6116
G0 X0 Y0
G0 X0 Y0
G92 X5 Y107
G0 X7 Y107
G92 X0 Y0
G92 X9 Y107
G0 X5 Y117
G92 X0 Y0
; Speed 20 -------------------------------------

G0 X0.1016 Y2.3388 F10000
G1 X0.1016 Y2.4912 S0.07 F1200
G1 X0.254 Y2.7452
G1 X0.4064 Y2.8976
G1 X0.7112 Y3.05
G1 X1.27 Y3.05
G1 X1.5748 Y2.8976
G1 X1.7272 Y2.7452
G1 X1.8288 Y2.4912
G1 X1.8288 Y2.1864
G1 X1.7272 Y1.8816
G1 X1.4224 Y1.4752
G1 X0 Y0.002
G1 X1.9812 Y0.002
G0 X0 Y0
G0 X0 Y0
G92 X5 Y117
G0 X7 Y117
G92 X0 Y0

G0 X0.8636 Y3.05 F10000
G1 X0.4064 Y2.8976 S0.07 F1200
G1 X0.1016 Y2.4912
G1 X0 Y1.7292
G1 X0 Y1.3228
G1 X0.1016 Y0.6116
G1 X0.4064 Y0.1544
G1 X0.8636 Y0.002
G1 X1.1176 Y0.002
G1 X1.5748 Y0.1544
G1 X1.8288 Y0.6116
G1 X1.9812 Y1.3228
G1 X1.9812 Y1.7292
G1 X1.8288 Y2.4912
G1 X1.5748 Y2.8976
G1 X1.1176 Y3.05
G1 X0.8636 Y3.05
G0 X0 Y0
G0 X0 Y0
G92 X5 Y117
G0 X7 Y117
G92 X0 Y0
G92 X9 Y117
; ABSCISSES ================================================
G0 X0 Y0
G0 X21 Y5
G92 X0 Y0
; Power 6 -------------------------------------

G0 X1.7272 Y2.5928 F10000
G1 X1.5748 Y2.8976 S0.07 F1200
G1 X1.1176 Y3.05
G1 X0.8636 Y3.05
G1 X0.4064 Y2.8976
G1 X0.1016 Y2.4912
G1 X0 Y1.7292
G1 X0 Y1.018
G1 X0.1016 Y0.4592
G1 X0.4064 Y0.1544
G1 X0.8636 Y0.002
G1 X0.9652 Y0.002
G1 X1.4224 Y0.1544
G1 X1.7272 Y0.4592
G1 X1.8288 Y0.8656
G1 X1.8288 Y1.018
G1 X1.7272 Y1.4752
G1 X1.4224 Y1.7292
G1 X0.9652 Y1.8816
G1 X0.8636 Y1.8816
G1 X0.4064 Y1.7292
G1 X0.1016 Y1.4752
G1 X0 Y1.018
G0 X0 Y0
G0 X0 Y0
G92 X21 Y5
G0 X23 Y5
G92 X0 Y0
G0 X0 Y0
G92 X23 Y5
G0 X31 Y5
G92 X0 Y0
; Power 6.1 -------------------------------------

G0 X1.7272 Y2.5928 F10000
G1 X1.5748 Y2.8976 S0.07 F1200
G1 X1.1176 Y3.05
G1 X0.8636 Y3.05
G1 X0.4064 Y2.8976
G1 X0.1016 Y2.4912
G1 X0 Y1.7292
G1 X0 Y1.018
G1 X0.1016 Y0.4592
G1 X0.4064 Y0.1544
G1 X0.8636 Y0.002
G1 X0.9652 Y0.002
G1 X1.4224 Y0.1544
G1 X1.7272 Y0.4592
G1 X1.8288 Y0.8656
G1 X1.8288 Y1.018
G1 X1.7272 Y1.4752
G1 X1.4224 Y1.7292
G1 X0.9652 Y1.8816
G1 X0.8636 Y1.8816
G1 X0.4064 Y1.7292
G1 X0.1016 Y1.4752
G1 X0 Y1.018
G0 X0 Y0
G0 X0 Y0
G92 X31 Y5
G0 X33 Y5
G92 X0 Y0

G0 X0.6096 Y0.3576 F10000
G1 X0.6604 Y0.5608 S0.07 F900
G1 X0.8128 Y0.6116
G1 X0.9652 Y0.5608
G1 X1.016 Y0.3576
G1 X0.9652 Y0.2052
G1 X0.8128 Y0.1544
G1 X0.6604 Y0.2052
G1 X0.6096 Y0.3576
G1 X0.6096 Y0.3576
G0 X0 Y0
G0 X0 Y0
G92 X31 Y5
G0 X33 Y5
G92 X0 Y0

G0 X0 Y2.4912 F10000
G1 X0.254 Y2.5928 S0.07 F1200
G1 X0.7112 Y3.05
G1 X0.7112 Y0.002
G0 X0 Y0
G0 X0 Y0
G92 X31 Y5
G0 X33 Y5
G92 X0 Y0
G0 X0 Y0
G92 X37 Y5
G0 X41 Y5
G92 X0 Y0
; Power 6.2 -------------------------------------

G0 X1.7272 Y2.5928 F10000
G1 X1.5748 Y2.8976 S0.07 F1200
G1 X1.1176 Y3.05
G1 X0.8636 Y3.05
G1 X0.4064 Y2.8976
G1 X0.1016 Y2.4912
G1 X0 Y1.7292
G1 X0 Y1.018
G1 X0.1016 Y0.4592
G1 X0.4064 Y0.1544
G1 X0.8636 Y0.002
G1 X0.9652 Y0.002
G1 X1.4224 Y0.1544
G1 X1.7272 Y0.4592
G1 X1.8288 Y0.8656
G1 X1.8288 Y1.018
G1 X1.7272 Y1.4752
G1 X1.4224 Y1.7292
G1 X0.9652 Y1.8816
G1 X0.8636 Y1.8816
G1 X0.4064 Y1.7292
G1 X0.1016 Y1.4752
G1 X0 Y1.018
G0 X0 Y0
G0 X0 Y0
G92 X41 Y5
G0 X43 Y5
G92 X0 Y0

G0 X0.6096 Y0.3576 F10000
G1 X0.6604 Y0.5608 S0.07 F900
G1 X0.8128 Y0.6116
G1 X0.9652 Y0.5608
G1 X1.016 Y0.3576
G1 X0.9652 Y0.2052
G1 X0.8128 Y0.1544
G1 X0.6604 Y0.2052
G1 X0.6096 Y0.3576
G1 X0.6096 Y0.3576
G0 X0 Y0
G0 X0 Y0
G92 X41 Y5
G0 X43 Y5
G92 X0 Y0

G0 X0.1016 Y2.3388 F10000
G1 X0.1016 Y2.4912 S0.07 F1200
G1 X0.254 Y2.7452
G1 X0.4064 Y2.8976
G1 X0.7112 Y3.05
G1 X1.27 Y3.05
G1 X1.5748 Y2.8976
G1 X1.7272 Y2.7452
G1 X1.8288 Y2.4912
G1 X1.8288 Y2.1864
G1 X1.7272 Y1.8816
G1 X1.4224 Y1.4752
G1 X0 Y0.002
G1 X1.9812 Y0.002
G0 X0 Y0
G0 X0 Y0
G92 X41 Y5
G0 X43 Y5
G92 X0 Y0
G0 X0 Y0
G92 X47 Y5
G0 X51 Y5
G92 X0 Y0
; Power 6.3 -------------------------------------

G0 X1.7272 Y2.5928 F10000
G1 X1.5748 Y2.8976 S0.07 F1200
G1 X1.1176 Y3.05
G1 X0.8636 Y3.05
G1 X0.4064 Y2.8976
G1 X0.1016 Y2.4912
G1 X0 Y1.7292
G1 X0 Y1.018
G1 X0.1016 Y0.4592
G1 X0.4064 Y0.1544
G1 X0.8636 Y0.002
G1 X0.9652 Y0.002
G1 X1.4224 Y0.1544
G1 X1.7272 Y0.4592
G1 X1.8288 Y0.8656
G1 X1.8288 Y1.018
G1 X1.7272 Y1.4752
G1 X1.4224 Y1.7292
G1 X0.9652 Y1.8816
G1 X0.8636 Y1.8816
G1 X0.4064 Y1.7292
G1 X0.1016 Y1.4752
G1 X0 Y1.018
G0 X0 Y0
G0 X0 Y0
G92 X51 Y5
G0 X53 Y5
G92 X0 Y0

G0 X0.6096 Y0.3576 F10000
G1 X0.6604 Y0.5608 S0.07 F900
G1 X0.8128 Y0.6116
G1 X0.9652 Y0.5608
G1 X1.016 Y0.3576
G1 X0.9652 Y0.2052
G1 X0.8128 Y0.1544
G1 X0.6604 Y0.2052
G1 X0.6096 Y0.3576
G1 X0.6096 Y0.3576
G0 X0 Y0
G0 X0 Y0
G92 X51 Y5
G0 X53 Y5
G92 X0 Y0

G0 X0.254 Y3.05 F10000
G1 X1.8288 Y3.05 S0.07 F1200
G1 X0.9652 Y1.8816
G1 X1.4224 Y1.8816
G1 X1.7272 Y1.7292
G1 X1.8288 Y1.6276
G1 X1.9812 Y1.1704
G1 X1.9812 Y0.8656
G1 X1.8288 Y0.4592
G1 X1.5748 Y0.1544
G1 X1.1176 Y0.002
G1 X0.7112 Y0.002
G1 X0.254 Y0.1544
G1 X0.1016 Y0.3068
G1 X0 Y0.6116
G0 X0 Y0
G0 X0 Y0
G92 X51 Y5
G0 X53 Y5
G92 X0 Y0
G0 X0 Y0
G92 X57 Y5
G0 X61 Y5
G92 X0 Y0
; Power 6.4 -------------------------------------

G0 X1.7272 Y2.5928 F10000
G1 X1.5748 Y2.8976 S0.07 F1200
G1 X1.1176 Y3.05
G1 X0.8636 Y3.05
G1 X0.4064 Y2.8976
G1 X0.1016 Y2.4912
G1 X0 Y1.7292
G1 X0 Y1.018
G1 X0.1016 Y0.4592
G1 X0.4064 Y0.1544
G1 X0.8636 Y0.002
G1 X0.9652 Y0.002
G1 X1.4224 Y0.1544
G1 X1.7272 Y0.4592
G1 X1.8288 Y0.8656
G1 X1.8288 Y1.018
G1 X1.7272 Y1.4752
G1 X1.4224 Y1.7292
G1 X0.9652 Y1.8816
G1 X0.8636 Y1.8816
G1 X0.4064 Y1.7292
G1 X0.1016 Y1.4752
G1 X0 Y1.018
G0 X0 Y0
G0 X0 Y0
G92 X61 Y5
G0 X63 Y5
G92 X0 Y0

G0 X0.6096 Y0.3576 F10000
G1 X0.6604 Y0.5608 S0.07 F900
G1 X0.8128 Y0.6116
G1 X0.9652 Y0.5608
G1 X1.016 Y0.3576
G1 X0.9652 Y0.2052
G1 X0.8128 Y0.1544
G1 X0.6604 Y0.2052
G1 X0.6096 Y0.3576
G1 X0.6096 Y0.3576
G0 X0 Y0
G0 X0 Y0
G92 X61 Y5
G0 X63 Y5
G92 X0 Y0

G0 X1.4224 Y3.05 F10000
G1 X0 Y1.018 S0.07 F1200
G1 X2.1336 Y1.018
G0 X1.4224 Y0.002 F10000
G1 X1.4224 Y3.05 F1200
G0 X0 Y0
G0 X0 Y0
G92 X61 Y5
G0 X63 Y5
G92 X0 Y0
G0 X0 Y0
G92 X67 Y5
G0 X71 Y5
G92 X0 Y0
; Power 6.5 -------------------------------------

G0 X1.7272 Y2.5928 F10000
G1 X1.5748 Y2.8976 S0.07 F1200
G1 X1.1176 Y3.05
G1 X0.8636 Y3.05
G1 X0.4064 Y2.8976
G1 X0.1016 Y2.4912
G1 X0 Y1.7292
G1 X0 Y1.018
G1 X0.1016 Y0.4592
G1 X0.4064 Y0.1544
G1 X0.8636 Y0.002
G1 X0.9652 Y0.002
G1 X1.4224 Y0.1544
G1 X1.7272 Y0.4592
G1 X1.8288 Y0.8656
G1 X1.8288 Y1.018
G1 X1.7272 Y1.4752
G1 X1.4224 Y1.7292
G1 X0.9652 Y1.8816
G1 X0.8636 Y1.8816
G1 X0.4064 Y1.7292
G1 X0.1016 Y1.4752
G1 X0 Y1.018
G0 X0 Y0
G0 X0 Y0
G92 X71 Y5
G0 X73 Y5
G92 X0 Y0

G0 X0.6096 Y0.3576 F10000
G1 X0.6604 Y0.5608 S0.07 F900
G1 X0.8128 Y0.6116
G1 X0.9652 Y0.5608
G1 X1.016 Y0.3576
G1 X0.9652 Y0.2052
G1 X0.8128 Y0.1544
G1 X0.6604 Y0.2052
G1 X0.6096 Y0.3576
G1 X0.6096 Y0.3576
G0 X0 Y0
G0 X0 Y0
G92 X71 Y5
G0 X73 Y5
G92 X0 Y0

G0 X1.7272 Y3.05 F10000
G1 X0.254 Y3.05 S0.07 F1200
G1 X0.1016 Y1.7292
G1 X0.254 Y1.8816
G1 X0.7112 Y2.034
G1 X1.1176 Y2.034
G1 X1.5748 Y1.8816
G1 X1.8288 Y1.6276
G1 X1.9812 Y1.1704
G1 X1.9812 Y0.8656
G1 X1.8288 Y0.4592
G1 X1.5748 Y0.1544
G1 X1.1176 Y0.002
G1 X0.7112 Y0.002
G1 X0.254 Y0.1544
G1 X0.1016 Y0.3068
G1 X0 Y0.6116
G0 X0 Y0
G0 X0 Y0
G92 X71 Y5
G0 X73 Y5
G92 X0 Y0
G0 X0 Y0
G92 X77 Y5
G0 X81 Y5
G92 X0 Y0
; Power 6.6 -------------------------------------

G0 X1.7272 Y2.5928 F10000
G1 X1.5748 Y2.8976 S0.07 F1200
G1 X1.1176 Y3.05
G1 X0.8636 Y3.05
G1 X0.4064 Y2.8976
G1 X0.1016 Y2.4912
G1 X0 Y1.7292
G1 X0 Y1.018
G1 X0.1016 Y0.4592
G1 X0.4064 Y0.1544
G1 X0.8636 Y0.002
G1 X0.9652 Y0.002
G1 X1.4224 Y0.1544
G1 X1.7272 Y0.4592
G1 X1.8288 Y0.8656
G1 X1.8288 Y1.018
G1 X1.7272 Y1.4752
G1 X1.4224 Y1.7292
G1 X0.9652 Y1.8816
G1 X0.8636 Y1.8816
G1 X0.4064 Y1.7292
G1 X0.1016 Y1.4752
G1 X0 Y1.018
G0 X0 Y0
G0 X0 Y0
G92 X81 Y5
G0 X83 Y5
G92 X0 Y0

G0 X0.6096 Y0.3576 F10000
G1 X0.6604 Y0.5608 S0.07 F900
G1 X0.8128 Y0.6116
G1 X0.9652 Y0.5608
G1 X1.016 Y0.3576
G1 X0.9652 Y0.2052
G1 X0.8128 Y0.1544
G1 X0.6604 Y0.2052
G1 X0.6096 Y0.3576
G1 X0.6096 Y0.3576
G0 X0 Y0
G0 X0 Y0
G92 X81 Y5
G0 X83 Y5
G92 X0 Y0

G0 X1.7272 Y2.5928 F10000
G1 X1.5748 Y2.8976 S0.07 F1200
G1 X1.1176 Y3.05
G1 X0.8636 Y3.05
G1 X0.4064 Y2.8976
G1 X0.1016 Y2.4912
G1 X0 Y1.7292
G1 X0 Y1.018
G1 X0.1016 Y0.4592
G1 X0.4064 Y0.1544
G1 X0.8636 Y0.002
G1 X0.9652 Y0.002
G1 X1.4224 Y0.1544
G1 X1.7272 Y0.4592
G1 X1.8288 Y0.8656
G1 X1.8288 Y1.018
G1 X1.7272 Y1.4752
G1 X1.4224 Y1.7292
G1 X0.9652 Y1.8816
G1 X0.8636 Y1.8816
G1 X0.4064 Y1.7292
G1 X0.1016 Y1.4752
G1 X0 Y1.018
G0 X0 Y0
G0 X0 Y0
G92 X81 Y5
G0 X83 Y5
G92 X0 Y0
G0 X0 Y0
G92 X87 Y5
G0 X91 Y5
G92 X0 Y0
; Power 6.7 -------------------------------------

G0 X1.7272 Y2.5928 F10000
G1 X1.5748 Y2.8976 S0.07 F1200
G1 X1.1176 Y3.05
G1 X0.8636 Y3.05
G1 X0.4064 Y2.8976
G1 X0.1016 Y2.4912
G1 X0 Y1.7292
G1 X0 Y1.018
G1 X0.1016 Y0.4592
G1 X0.4064 Y0.1544
G1 X0.8636 Y0.002
G1 X0.9652 Y0.002
G1 X1.4224 Y0.1544
G1 X1.7272 Y0.4592
G1 X1.8288 Y0.8656
G1 X1.8288 Y1.018
G1 X1.7272 Y1.4752
G1 X1.4224 Y1.7292
G1 X0.9652 Y1.8816
G1 X0.8636 Y1.8816
G1 X0.4064 Y1.7292
G1 X0.1016 Y1.4752
G1 X0 Y1.018
G0 X0 Y0
G0 X0 Y0
G92 X91 Y5
G0 X93 Y5
G92 X0 Y0

G0 X0.6096 Y0.3576 F10000
G1 X0.6604 Y0.5608 S0.07 F900
G1 X0.8128 Y0.6116
G1 X0.9652 Y0.5608
G1 X1.016 Y0.3576
G1 X0.9652 Y0.2052
G1 X0.8128 Y0.1544
G1 X0.6604 Y0.2052
G1 X0.6096 Y0.3576
G1 X0.6096 Y0.3576
G0 X0 Y0
G0 X0 Y0
G92 X91 Y5
G0 X93 Y5
G92 X0 Y0

G0 X1.9812 Y3.05 F10000
G1 X0.5588 Y0.002 S0.07 F1200
G0 X0 Y3.05 F10000
G1 X1.9812 Y3.05 F1200
G0 X0 Y0
G0 X0 Y0
G92 X91 Y5
G0 X93 Y5
G92 X0 Y0
G0 X0 Y0
G92 X97 Y5
G0 X101 Y5
G92 X0 Y0
; Power 6.8 -------------------------------------

G0 X1.7272 Y2.5928 F10000
G1 X1.5748 Y2.8976 S0.07 F1200
G1 X1.1176 Y3.05
G1 X0.8636 Y3.05
G1 X0.4064 Y2.8976
G1 X0.1016 Y2.4912
G1 X0 Y1.7292
G1 X0 Y1.018
G1 X0.1016 Y0.4592
G1 X0.4064 Y0.1544
G1 X0.8636 Y0.002
G1 X0.9652 Y0.002
G1 X1.4224 Y0.1544
G1 X1.7272 Y0.4592
G1 X1.8288 Y0.8656
G1 X1.8288 Y1.018
G1 X1.7272 Y1.4752
G1 X1.4224 Y1.7292
G1 X0.9652 Y1.8816
G1 X0.8636 Y1.8816
G1 X0.4064 Y1.7292
G1 X0.1016 Y1.4752
G1 X0 Y1.018
G0 X0 Y0
G0 X0 Y0
G92 X101 Y5
G0 X103 Y5
G92 X0 Y0

G0 X0.6096 Y0.3576 F10000
G1 X0.6604 Y0.5608 S0.07 F900
G1 X0.8128 Y0.6116
G1 X0.9652 Y0.5608
G1 X1.016 Y0.3576
G1 X0.9652 Y0.2052
G1 X0.8128 Y0.1544
G1 X0.6604 Y0.2052
G1 X0.6096 Y0.3576
G1 X0.6096 Y0.3576
G0 X0 Y0
G0 X0 Y0
G92 X101 Y5
G0 X103 Y5
G92 X0 Y0

G0 X0.7112 Y3.05 F10000
G1 X0.254 Y2.8976 S0.07 F1200
G1 X0.1016 Y2.5928
G1 X0.1016 Y2.3388
G1 X0.254 Y2.034
G1 X0.5588 Y1.8816
G1 X1.1176 Y1.7292
G1 X1.5748 Y1.6276
G1 X1.8288 Y1.3228
G1 X1.9812 Y1.018
G1 X1.9812 Y0.6116
G1 X1.8288 Y0.3068
G1 X1.7272 Y0.1544
G1 X1.27 Y0.002
G1 X0.7112 Y0.002
G1 X0.254 Y0.1544
G1 X0.1016 Y0.3068
G1 X0 Y0.6116
G1 X0 Y1.018
G1 X0.1016 Y1.3228
G1 X0.4064 Y1.6276
G1 X0.8636 Y1.7292
G1 X1.4224 Y1.8816
G1 X1.7272 Y2.034
G1 X1.8288 Y2.3388
G1 X1.8288 Y2.5928
G1 X1.7272 Y2.8976
G1 X1.27 Y3.05
G1 X0.7112 Y3.05
G0 X0 Y0
G0 X0 Y0
G92 X101 Y5
G0 X103 Y5
G92 X0 Y0
G0 X0 Y0
G92 X107 Y5
G0 X111 Y5
G92 X0 Y0
; Power 6.9 -------------------------------------

G0 X1.7272 Y2.5928 F10000
G1 X1.5748 Y2.8976 S0.07 F1200
G1 X1.1176 Y3.05
G1 X0.8636 Y3.05
G1 X0.4064 Y2.8976
G1 X0.1016 Y2.4912
G1 X0 Y1.7292
G1 X0 Y1.018
G1 X0.1016 Y0.4592
G1 X0.4064 Y0.1544
G1 X0.8636 Y0.002
G1 X0.9652 Y0.002
G1 X1.4224 Y0.1544
G1 X1.7272 Y0.4592
G1 X1.8288 Y0.8656
G1 X1.8288 Y1.018
G1 X1.7272 Y1.4752
G1 X1.4224 Y1.7292
G1 X0.9652 Y1.8816
G1 X0.8636 Y1.8816
G1 X0.4064 Y1.7292
G1 X0.1016 Y1.4752
G1 X0 Y1.018
G0 X0 Y0
G0 X0 Y0
G92 X111 Y5
G0 X113 Y5
G92 X0 Y0

G0 X0.6096 Y0.3576 F10000
G1 X0.6604 Y0.5608 S0.07 F900
G1 X0.8128 Y0.6116
G1 X0.9652 Y0.5608
G1 X1.016 Y0.3576
G1 X0.9652 Y0.2052
G1 X0.8128 Y0.1544
G1 X0.6604 Y0.2052
G1 X0.6096 Y0.3576
G1 X0.6096 Y0.3576
G0 X0 Y0
G0 X0 Y0
G92 X111 Y5
G0 X113 Y5
G92 X0 Y0

G0 X1.8288 Y2.034 F10000
G1 X1.7272 Y1.6276 S0.07 F1200
G1 X1.4224 Y1.3228
G1 X0.9652 Y1.1704
G1 X0.8636 Y1.1704
G1 X0.4064 Y1.3228
G1 X0.1016 Y1.6276
G1 X0 Y2.034
G1 X0 Y2.1864
G1 X0.1016 Y2.5928
G1 X0.4064 Y2.8976
G1 X0.8636 Y3.05
G1 X0.9652 Y3.05
G1 X1.4224 Y2.8976
G1 X1.7272 Y2.5928
G1 X1.8288 Y2.034
G1 X1.8288 Y1.3228
G1 X1.7272 Y0.6116
G1 X1.4224 Y0.1544
G1 X0.9652 Y0.002
G1 X0.7112 Y0.002
G1 X0.254 Y0.1544
G1 X0.1016 Y0.4592
G0 X0 Y0
G0 X0 Y0
G92 X111 Y5
G0 X113 Y5
G92 X0 Y0
G0 X0 Y0
G92 X117 Y5
G0 X121 Y5
G92 X0 Y0
; Power 7 -------------------------------------

G0 X1.9812 Y3.05 F10000
G1 X0.5588 Y0.002 S0.07 F1200
G0 X0 Y3.05 F10000
G1 X1.9812 Y3.05 F1200
G0 X0 Y0
G0 X0 Y0
G92 X121 Y5
G0 X123 Y5
G92 X0 Y0
G0 X0 Y0
G92 X123 Y5
G0 X131 Y5
G92 X0 Y0
; Power 7.5 -------------------------------------

G0 X1.9812 Y3.05 F10000
G1 X0.5588 Y0.002 S0.07 F1200
G0 X0 Y3.05 F10000
G1 X1.9812 Y3.05 F1200
G0 X0 Y0
G0 X0 Y0
G92 X131 Y5
G0 X133 Y5
G92 X0 Y0

G0 X0.6096 Y0.3576 F10000
G1 X0.6604 Y0.5608 S0.07 F900
G1 X0.8128 Y0.6116
G1 X0.9652 Y0.5608
G1 X1.016 Y0.3576
G1 X0.9652 Y0.2052
G1 X0.8128 Y0.1544
G1 X0.6604 Y0.2052
G1 X0.6096 Y0.3576
G1 X0.6096 Y0.3576
G0 X0 Y0
G0 X0 Y0
G92 X131 Y5
G0 X133 Y5
G92 X0 Y0

G0 X1.7272 Y3.05 F10000
G1 X0.254 Y3.05 S0.07 F1200
G1 X0.1016 Y1.7292
G1 X0.254 Y1.8816
G1 X0.7112 Y2.034
G1 X1.1176 Y2.034
G1 X1.5748 Y1.8816
G1 X1.8288 Y1.6276
G1 X1.9812 Y1.1704
G1 X1.9812 Y0.8656
G1 X1.8288 Y0.4592
G1 X1.5748 Y0.1544
G1 X1.1176 Y0.002
G1 X0.7112 Y0.002
G1 X0.254 Y0.1544
G1 X0.1016 Y0.3068
G1 X0 Y0.6116
G0 X0 Y0
G0 X0 Y0
G92 X131 Y5
G0 X133 Y5
G92 X0 Y0
G0 X0 Y0
G92 X137 Y5
G0 X141 Y5
G92 X0 Y0
; Power 8 -------------------------------------

G0 X0.7112 Y3.05 F10000
G1 X0.254 Y2.8976 S0.07 F1200
G1 X0.1016 Y2.5928
G1 X0.1016 Y2.3388
G1 X0.254 Y2.034
G1 X0.5588 Y1.8816
G1 X1.1176 Y1.7292
G1 X1.5748 Y1.6276
G1 X1.8288 Y1.3228
G1 X1.9812 Y1.018
G1 X1.9812 Y0.6116
G1 X1.8288 Y0.3068
G1 X1.7272 Y0.1544
G1 X1.27 Y0.002
G1 X0.7112 Y0.002
G1 X0.254 Y0.1544
G1 X0.1016 Y0.3068
G1 X0 Y0.6116
G1 X0 Y1.018
G1 X0.1016 Y1.3228
G1 X0.4064 Y1.6276
G1 X0.8636 Y1.7292
G1 X1.4224 Y1.8816
G1 X1.7272 Y2.034
G1 X1.8288 Y2.3388
G1 X1.8288 Y2.5928
G1 X1.7272 Y2.8976
G1 X1.27 Y3.05
G1 X0.7112 Y3.05
G0 X0 Y0
G0 X0 Y0
G92 X141 Y5
G0 X143 Y5
G92 X0 Y0
G0 X0 Y0
G92 X143 Y5
G0 X151 Y5
G92 X0 Y0
; Power 8.5 -------------------------------------

G0 X0.7112 Y3.05 F10000
G1 X0.254 Y2.8976 S0.07 F1200
G1 X0.1016 Y2.5928
G1 X0.1016 Y2.3388
G1 X0.254 Y2.034
G1 X0.5588 Y1.8816
G1 X1.1176 Y1.7292
G1 X1.5748 Y1.6276
G1 X1.8288 Y1.3228
G1 X1.9812 Y1.018
G1 X1.9812 Y0.6116
G1 X1.8288 Y0.3068
G1 X1.7272 Y0.1544
G1 X1.27 Y0.002
G1 X0.7112 Y0.002
G1 X0.254 Y0.1544
G1 X0.1016 Y0.3068
G1 X0 Y0.6116
G1 X0 Y1.018
G1 X0.1016 Y1.3228
G1 X0.4064 Y1.6276
G1 X0.8636 Y1.7292
G1 X1.4224 Y1.8816
G1 X1.7272 Y2.034
G1 X1.8288 Y2.3388
G1 X1.8288 Y2.5928
G1 X1.7272 Y2.8976
G1 X1.27 Y3.05
G1 X0.7112 Y3.05
G0 X0 Y0
G0 X0 Y0
G92 X151 Y5
G0 X153 Y5
G92 X0 Y0

G0 X0.6096 Y0.3576 F10000
G1 X0.6604 Y0.5608 S0.07 F900
G1 X0.8128 Y0.6116
G1 X0.9652 Y0.5608
G1 X1.016 Y0.3576
G1 X0.9652 Y0.2052
G1 X0.8128 Y0.1544
G1 X0.6604 Y0.2052
G1 X0.6096 Y0.3576
G1 X0.6096 Y0.3576
G0 X0 Y0
G0 X0 Y0
G92 X151 Y5
G0 X153 Y5
G92 X0 Y0

G0 X1.7272 Y3.05 F10000
G1 X0.254 Y3.05 S0.07 F1200
G1 X0.1016 Y1.7292
G1 X0.254 Y1.8816
G1 X0.7112 Y2.034
G1 X1.1176 Y2.034
G1 X1.5748 Y1.8816
G1 X1.8288 Y1.6276
G1 X1.9812 Y1.1704
G1 X1.9812 Y0.8656
G1 X1.8288 Y0.4592
G1 X1.5748 Y0.1544
G1 X1.1176 Y0.002
G1 X0.7112 Y0.002
G1 X0.254 Y0.1544
G1 X0.1016 Y0.3068
G1 X0 Y0.6116
G0 X0 Y0
G0 X0 Y0
G92 X151 Y5
G0 X153 Y5
G92 X0 Y0
G0 X0 Y0
G92 X157 Y5
G0 X161 Y5
G92 X0 Y0
; Power 9 -------------------------------------

G0 X1.8288 Y2.034 F10000
G1 X1.7272 Y1.6276 S0.07 F1200
G1 X1.4224 Y1.3228
G1 X0.9652 Y1.1704
G1 X0.8636 Y1.1704
G1 X0.4064 Y1.3228
G1 X0.1016 Y1.6276
G1 X0 Y2.034
G1 X0 Y2.1864
G1 X0.1016 Y2.5928
G1 X0.4064 Y2.8976
G1 X0.8636 Y3.05
G1 X0.9652 Y3.05
G1 X1.4224 Y2.8976
G1 X1.7272 Y2.5928
G1 X1.8288 Y2.034
G1 X1.8288 Y1.3228
G1 X1.7272 Y0.6116
G1 X1.4224 Y0.1544
G1 X0.9652 Y0.002
G1 X0.7112 Y0.002
G1 X0.254 Y0.1544
G1 X0.1016 Y0.4592
G0 X0 Y0
G0 X0 Y0
G92 X161 Y5
G0 X163 Y5
G92 X0 Y0
G0 X0 Y0
G92 X163 Y5
G0 X171 Y5
G92 X0 Y0
; Power 9.5 -------------------------------------

G0 X1.8288 Y2.034 F10000
G1 X1.7272 Y1.6276 S0.07 F1200
G1 X1.4224 Y1.3228
G1 X0.9652 Y1.1704
G1 X0.8636 Y1.1704
G1 X0.4064 Y1.3228
G1 X0.1016 Y1.6276
G1 X0 Y2.034
G1 X0 Y2.1864
G1 X0.1016 Y2.5928
G1 X0.4064 Y2.8976
G1 X0.8636 Y3.05
G1 X0.9652 Y3.05
G1 X1.4224 Y2.8976
G1 X1.7272 Y2.5928
G1 X1.8288 Y2.034
G1 X1.8288 Y1.3228
G1 X1.7272 Y0.6116
G1 X1.4224 Y0.1544
G1 X0.9652 Y0.002
G1 X0.7112 Y0.002
G1 X0.254 Y0.1544
G1 X0.1016 Y0.4592
G0 X0 Y0
G0 X0 Y0
G92 X171 Y5
G0 X173 Y5
G92 X0 Y0

G0 X0.6096 Y0.3576 F10000
G1 X0.6604 Y0.5608 S0.07 F900
G1 X0.8128 Y0.6116
G1 X0.9652 Y0.5608
G1 X1.016 Y0.3576
G1 X0.9652 Y0.2052
G1 X0.8128 Y0.1544
G1 X0.6604 Y0.2052
G1 X0.6096 Y0.3576
G1 X0.6096 Y0.3576
G0 X0 Y0
G0 X0 Y0
G92 X171 Y5
G0 X173 Y5
G92 X0 Y0

G0 X1.7272 Y3.05 F10000
G1 X0.254 Y3.05 S0.07 F1200
G1 X0.1016 Y1.7292
G1 X0.254 Y1.8816
G1 X0.7112 Y2.034
G1 X1.1176 Y2.034
G1 X1.5748 Y1.8816
G1 X1.8288 Y1.6276
G1 X1.9812 Y1.1704
G1 X1.9812 Y0.8656
G1 X1.8288 Y0.4592
G1 X1.5748 Y0.1544
G1 X1.1176 Y0.002
G1 X0.7112 Y0.002
G1 X0.254 Y0.1544
G1 X0.1016 Y0.3068
G1 X0 Y0.6116
G0 X0 Y0
G0 X0 Y0
G92 X171 Y5
G0 X173 Y5
G92 X0 Y0
G0 X0 Y0
G92 X177 Y5
G0 X181 Y5
G92 X0 Y0
; Power 10 -------------------------------------

G0 X0 Y2.4912 F10000
G1 X0.254 Y2.5928 S0.07 F1200
G1 X0.7112 Y3.05
G1 X0.7112 Y0.002
G0 X0 Y0
G0 X0 Y0
G92 X181 Y5
G0 X183 Y5
G92 X0 Y0

G0 X0.8636 Y3.05 F10000
G1 X0.4064 Y2.8976 S0.07 F1200
G1 X0.1016 Y2.4912
G1 X0 Y1.7292
G1 X0 Y1.3228
G1 X0.1016 Y0.6116
G1 X0.4064 Y0.1544
G1 X0.8636 Y0.002
G1 X1.1176 Y0.002
G1 X1.5748 Y0.1544
G1 X1.8288 Y0.6116
G1 X1.9812 Y1.3228
G1 X1.9812 Y1.7292
G1 X1.8288 Y2.4912
G1 X1.5748 Y2.8976
G1 X1.1176 Y3.05
G1 X0.8636 Y3.05
G0 X0 Y0
G0 X0 Y0
G92 X181 Y5
G0 X183 Y5
G92 X0 Y0
G0 X0 Y0
G92 X185 Y5

; Cutting around matrix ----------------------
G0 X0 Y0 F10000
G1 X190 Y0 S1 F600
G1 X190 Y130 
G1 X0 Y130 
G1 X0 Y0 
G0 X0 Y0
M5
M107
